Source Code/mun/assets/flags/KNA.svg

<svg viewBox="0 0 40.5 40.5" xmlns="http://www.w3.org/2000/svg"><path d="m30.82 3-30.58 20.41a20.53 20.53 0 0 1 -.24-3.16 20.25 20.25 0 0 1 30.82-17.25z" fill="#009e49"/><path d="m39.69 14.57-32.13 21.43a20.26 20.26 0 0 1 -6.75-10.08l32.13-21.44a20.1 20.1 0 0 1 6.75 10.09z"/><path d="m40.5 20.25a20.25 20.25 0 0 1 -30.82 17.27l30.59-20.39a21.21 21.21 0 0 1 .23 3.12z" fill="#ce1126"/><path d="m32.94 4.48-32.13 21.44a20.36 20.36 0 0 1 -.57-2.51l30.58-20.41a19.76 19.76 0 0 1 2.12 1.48z" fill="#fcd116"/><path d="m40.27 17.13-30.59 20.39a19.76 19.76 0 0 1 -2.12-1.52l32.13-21.43a23.26 23.26 0 0 1 .58 2.56z" fill="#fcd116"/><g fill="#fff"><path d="m7.71 21.94 3.19 2.54 3.4-2.25-1.42 3.82 3.19 2.54-4.08-.18-1.42 3.82-1.09-3.93-4.08-.17 3.4-2.26z"/><path d="m26.63 9.31 3.19 2.54 3.4-2.26-1.43 3.82 3.19 2.54-4.07-.17-1.43 3.82-1.09-3.93-4.07-.18 3.4-2.25z"/></g></svg>

<svg xmlns="http://www.w3.org/2000/svg" viewBox="0 0 40.5 40.5"><defs><style>.cls-1{fill:#009e49;}.cls-2{fill:#ce1126;}.cls-3{fill:#fcd116;}.cls-4{fill:#fff;}</style></defs><g id="Ebene_2" data-name="Ebene 2"><g id="Ńëîé_1" data-name="Ńëîé 1"><path class="cls-1" d="M30.82,3,.24,23.41A20.53,20.53,0,0,1,0,20.25,20.25,20.25,0,0,1,30.82,3Z"/><path d="M39.69,14.57,7.56,36A20.26,20.26,0,0,1,.81,25.92L32.94,4.48A20.1,20.1,0,0,1,39.69,14.57Z"/><path class="cls-2" d="M40.5,20.25A20.25,20.25,0,0,1,9.68,37.52L40.27,17.13A21.21,21.21,0,0,1,40.5,20.25Z"/><path class="cls-3" d="M32.94,4.48.81,25.92a20.36,20.36,0,0,1-.57-2.51L30.82,3A19.76,19.76,0,0,1,32.94,4.48Z"/><path class="cls-3" d="M40.27,17.13,9.68,37.52A19.76,19.76,0,0,1,7.56,36L39.69,14.57A23.26,23.26,0,0,1,40.27,17.13Z"/><polygon class="cls-4" points="7.71 21.94 10.9 24.48 14.3 22.23 12.88 26.05 16.07 28.59 11.99 28.41 10.57 32.23 9.48 28.3 5.4 28.13 8.8 25.87 7.71 21.94"/><polygon class="cls-4" points="26.63 9.31 29.82 11.85 33.22 9.59 31.79 13.41 34.98 15.95 30.91 15.78 29.48 19.6 28.39 15.67 24.32 15.49 27.72 13.24 26.63 9.31"/></g></g></svg>
